X:1
T:Minuet in G major, BWV Anh. 114
T:Minuet in G major, BWV Anh. 114
T:Until 1970 it was attributed to Johann Sebastian Bach (BWV Anh. 114), but it is now universally attributed to Christian Petzold
T:Christian Petzold
T:Public Domain
C:Christian Petzold
Z:Public Domain
%%score { 1 | ( 2 3 ) }
L:1/8
Q:1/4=160
M:3/4
K:G
V:1 treble nm="Piano" snm="Pno."
V:2 bass 
V:3 bass 
V:1
 !5!d2 GA Bc | d2 G2 G2 | !5!e2 M!1!cd ef | g2 G2 G2 | M!4!c2 dc BA | !3!B2 cB AG | !2!F2 GA BG | %7
 !>!A6 | d2 GA Bc | d2 G2 G2 | e2 Mcd ef | g2 G2 G2 | Mc2 dc BA | B2 cB AG | A2 BA GF | G6 :: %16
 b2 ga bg | a2 de fd | g2 ef gd | ^c2 Bc A2 | AB ^cd ef | g2 f2 e2 | f2 A2 ^c2 | d6 | d2 GF G2 | %25
 e2 GF G2 | d2 c2 B2 | AG FG A2 | DE FG AB | c2 MB2 A2 | Bd G2 F2 | [B,DG]6 :| %32
V:2
 [G,B,D]4 A,2 | B,6 | C6 | B,6 | A,6 | G,6 | D2 B,2 G,2 | D2 D,!1!C B,A, | !2!B,4 A,2 | %9
 G,2 B,2 G,2 | C6 | B,2 CB, A,G, | !1!A,4 !5!F,2 | !4!G,4 !3!B,2 | C2 D2 D,2 | G,4 G,,2 :: G,6 | %17
 F,6 | E,2 G,2 E,2 | A,4 A,,2 | A,6 | B,2 D2 ^C2 | D2 F,2 A,2 | D2 D,2 =C2 | z2 D4 | !2!C4 C2 | %26
 B,2 A,2 G,2 | D4 z2 | z2 z2 F,2 | E,2 G,2 F,2 | G,2 B,,2 D,2 | G,2 D,2 G,,2 :| %32
V:3
 x6 | x6 | x6 | x6 | x6 | x6 | x6 | x6 | x6 | x6 | x6 | x6 | x6 | x6 | x6 | x6 :: x6 | x6 | x6 | %19
 x6 | x6 | x6 | x6 | x6 | B,4 !2!B,2 | z2 E4 | x6 | x6 | D,6 | x6 | x6 | x5 z :| %32

